X:1
T:Title
%%score [ ( 1 2 ) ( 3 4 ) ]
L:1/8
Q:1/4=120
M:4/4
K:C
V:1 treble nm="Midi_74"
V:2 treble 
V:3 bass nm="Midi_74"
V:4 bass 
V:1
[K:G]"^John Ellerton\n(1826-1893)" D2 DD G2 A2 | %1
w: This is the day of|
w: |
w: This is the day of|
w: |
w: This is the first of|
"^This is the day of light /""^Das ist der Tag des Herrn!" B6 B2 | A2 B2 c2 A2 | %3
w: light: let|there be light to-|
w: ||
w: peace; thy|peace our spi- rits|
w: ||
w: days; send|forth thy quick- 'ning|
"^Herbert Stanley Oakeley\n(1830-1903)" F6 || D2 |[M:4/4] E2 F2 G2 F2 | G2 A2 B2 d2 | c2 B2 A2 F2 | %8
w: day;|O|day- spring, rise up-|on our night and|chase its gloom a-|
w: |||||
w: fill;|bid|thou the blasts of|dis- cord cease, the|waves of strife be|
w: |||||
w: breath,|and|wake dead souls to|love and praise, O|van- quish- er of|
 G8 |[M:2/2] D2 DD G2 A2 | B6 B2 | A2 B2 c2 A2 | F6 || D2 |[M:4/4] E2 F2 G2 F2 | G2 A2 B2 d2 | %16
w: way.|Das ist der Tag des|Herrn! Lass|leuch- ten uns dein|Licht.|Du|Quell des Tags, durch-|dring die Nacht, ver-|
w: ||||||||
w: still.|Das ist der Tag des|Herrn! Dein|Frie- de uns er-|füll.|Lass|schwei- gen al- ler|Zwie- tracht Lärm, des|
w: ||||||||
w: death!|Das ist der Tag des|Herrn! Hauch|dei- nen Geist uns|ein,|weck|To- te auf zu|dei- nem Lob, du,|
 c2 B2 A2 F2 | G8 |] %18
w: treib die Fin- ster-|nis.|
w: ||
w: Strei- tes Wo- gen|still.|
w: ||
w: der den Tod be-|siegt.|
V:2
[K:G] B,2 CC B,2 E2 | ^D6 E2 | E2 ED C2 E2 | (E2 D4) || A,2 |[M:4/4] B,2 D2 D2 D2 | D2 C2 B,2 E2 | %7
w: |||||||
w: This is the day of|rest: our|fail- ing * strength re-|new; *|On|wea- ry brain and|troub- led breast shed|
w: |||||||
w: This is the day of|prayer: let|earth to * heav'n draw|near; *|lift|up our hearts to|seek thee there, come|
 EF G2 E2 D2 | D8 |[M:2/2] B,2 CC B,2 E2 | ^D6 E2 | E2 ED C2 E2 | (E2 D4) || A,2 | %14
w: |||||||
w: thou * thy fresh- 'ning|dew.|Das ist der Tag des|Herrn! Gib|du uns * neu- e|Kraft, *|er-|
w: |||||||
w: down * to meet us|here.|Das ist der Tag des|Herrn! Söhn|Erd und * Him- mel|aus. *|Er-|
[M:4/4] B,2 D2 D2 D2 | D2 C2 B,2 E2 | EF G2 E2 D2 | D8 |] %18
w: ||||
w: qui- cke das be-|lad- ne Herz mit|dei- * ner Gna- de|Tau.|
w: ||||
w: heb die Her- zen|hin zu dir, neig|uns * dein An- ge-|sicht.|
V:3
[K:G] G,2 A,F, G,2 E,2 | F,6 G,2 | A,2 ^G,2 A,2 A,2 | A,6 || F,2 |[M:4/4] G,2 A,2 B,2 A,2 | %6
 G,2 F,2 G,2 B,2 | A,2 D2 C2 A,2 | B,8 |[M:2/2] G,2 A,F, G,2 E,2 | F,6 G,2 | A,2 ^G,2 A,2 A,2 | %12
 A,6 || F,2 | %14
[M:4/4]"^This edition produced by Andrew Sims, 2019. \nThe rights to the German translation are held by the Benediktinerabtei St. Matthias, Trier, \nwhich has given permission for the translation to be used freely for non-commercial purposes." G,2 A,2 B,2 A,2 | %15
 G,2 F,2 G,2 B,2 | A,2 D2 C2 A,2 | B,8 |] %18
V:4
[K:G] G,2 F,D, E,2 C,2 | B,,6 E,2 | C,2 B,,2 A,,2 C,2 | D,6 || D,2 |[M:4/4] D,2 C,2 B,,2 C,2 | %6
 B,,2 A,,2 G,,2 ^G,,2 | A,,2 B,,2 C,2 D,2 | G,,8 |[M:2/2] G,2 F,D, E,2 C,2 | B,,6 E,2 | %11
 C,2 B,,2 A,,2 C,2 | D,6 || D,2 |[M:4/4] D,2 C,2 B,,2 C,2 | B,,2 A,,2 G,,2 ^G,,2 | %16
 A,,2 B,,2 C,2 D,2 | G,,8 |] %18

